svg/panorama_variant.svg

<svg xmlns="http://www.w3.org/2000/svg" viewBox="0 0 24 24"><path d="M20.7 4.1c-2 .7-4.8 1.4-8.7 1.4s-6.9-.8-8.7-1.4C2.7 3.8 2 4.3 2 5v14c0 .7.7 1.2 1.3 1 2.1-.7 4.8-1.5 8.7-1.5s6.7.8 8.7 1.5c.7.2 1.3-.3 1.3-1V5c0-.7-.7-1.2-1.3-.9M12 15c-2.3 0-4.5.1-6.5.4L9.2 11l2 2.4L14 10l4.5 5.4c-2-.3-4.2-.4-6.5-.4"/></svg>

<svg xmlns="http://www.w3.org/2000/svg" id="mdi-panorama-variant" viewBox="0 0 24 24"><path d="M20.7 4.1C18.7 4.8 15.9 5.5 12 5.5C8.1 5.5 5.1 4.7 3.3 4.1C2.7 3.8 2 4.3 2 5V19C2 19.7 2.7 20.2 3.3 20C5.4 19.3 8.1 18.5 12 18.5C15.9 18.5 18.7 19.3 20.7 20C21.4 20.2 22 19.7 22 19V5C22 4.3 21.3 3.8 20.7 4.1M12 15C9.7 15 7.5 15.1 5.5 15.4L9.2 11L11.2 13.4L14 10L18.5 15.4C16.5 15.1 14.3 15 12 15Z" /></svg>
